X: 50
T: Boże w miłosierdziu swoim nieprzebrany,
C: Mikołaj Gomółka
%%abc-version 2.0
%%abcx-abcm2ps-target-version 5.9.1 (29 Sep 2008)
%%abc-creator hum2abc beta
%%abcx-conversion-date 2021/10/04 07:59:09
%%abc-edited-by Anna Matuszewska
%%abcx-initial-encoding-date 2020-02-09
%%humdrum-veritas 1461752892
%%humdrum-veritas-data 827982194
%%linebreak <none>
%%barnumbers 0
L: 1/4
M: C|
N: Derived from pl-wn--sd-xvi-qu-273--051_gomolka-mikolaj--boze-w-milosierdziu-swoim-nieprzebrany.krn
%%staves [1 2 3 4]
V: 1
V: 2 clef=alto
V: 3 clef=tenor
V: 4 clef=bass
K: C
[V:1] A4A4 | 
[V:2] F4E4 | 
[V:3] D4^C4 | 
[V:4] D,4A,,4 [|] 
[V:1] z2B4^c2 | 
[V:2] z2G2>F2E2 | 
[V:3] z2DCB,A,A,4 | 
[V:4] z2G,,4A,,2 [|] 
[V:1] d2d2c2BA | 
[V:2] DCDEFEDC | 
[V:3] G,2A,2FE | 
[V:4] _B,,2B,,2A,,2D,2 [|] 
[V:1] BAAG/F/GA^G2 | 
[V:2] F2CDE4 | 
[V:3] DCCB,/A,/B,4 | 
[V:4] D,2F,2E,3D, [|] 
[V:1] A2A4E2 | 
[V:2] E2D2^C2C2 | 
[V:3] A,2A,4A,2 | 
[V:4] ^C,2D,2A,,2A,,2 [|] 
[V:1] F2C2>C2A,2 | 
[V:2] C4A,3A, | 
[V:3] A,3G,/F,/E,D,E,2 | 
[V:4] F,,2>G,,2A,,3A,, [|] 
[V:1] A4^G2A2 | 
[V:2] A,2D2B,2A,2 | 
[V:3] D,2F,2E,2E,2 | 
[V:4] D,,2D,2E,2^C,2 [|] 
[V:1] F2>E2D4 | 
[V:2] A,2A,4G,2 | 
[V:3] F,4F,2E,D, | 
[V:4] D,2>C,2B,,4 [|] 
[V:1] C2E2F4 | 
[V:2] A,2C2D3C | 
[V:3] E,2A,2A,2F,2 | 
[V:4] A,,2A,,2D,4 [|] 
[V:1] E2G2F4 | 
[V:2] B,2E2D3C | 
[V:3] G,2CB,A,G,A,2 | 
[V:4] E,2C,2D,4 [|] 
[V:1] E2B2c3B | 
[V:2] B,2G2CDE4 | 
[V:3] G,2=E2>D2C4 | 
[V:4] E,2E,2A,3G, [|] 
[V:1] A2A2^G2G2 | 
[V:2] D2E2E4 | 
[V:3] B,A,B,2B,2 | 
[V:4] F,2F,2E,2E,2 [|] 
[V:1] A4^G2G2 | 
[V:2] F2E3D | 
[V:3] A,2DCB,A,B,2 | 
[V:4] ^C,2D,2E,2E,2 [|] 
[V:1] A4^G2Bc | 
[V:2] C2>D2E2E2 | 
[V:3] A,4B,2G,2 | 
[V:4] F,4E,2E,2 [|] 
[V:1] BAA4G2 | 
[V:2] E2C2F2ED | 
[V:3] G,2A,2B,2B,2 | 
[V:4] E,2F,2D,2E,2 [|] 
[V:1] A8 |]  
[V:2] ^C8 |]  
[V:3] A,8 |]  
[V:4] A,,8 [|] 


